X: 20
T: No_122.krn
N: Derived from No_122.krn
%%abc-version 2.0
%%abcx-abcm2ps-target-version 5.9.1 (29 Sep 2008)
%%abc-creator hum2abc beta
%%abcx-conversion-date 2019/03/15 08:29:13
%%humdrum-veritas 2302221705
%%humdrum-veritas-data 2488190967
%%linebreak <none>
%%barnumbers 0
L: 1/8
M: 3/4
%%staves {1 2}
V: 1
V: 2 clef=bass
K: Gb
[V:1] AG3/A/ [I:setbarnb 1]| 
[V:2] z3 | 
[V:1] (G2(3G)EG E3/G/ | 
[V:2] G,,G,, G,,G,, G,,G,, | 
[V:1] E3DD2[K:clef=bass] | 
[V:2] z6 | 
[V:1] (B,2(3B,)G,B, A,B,/A,/ | 
[V:2] z6 | 
[V:1] G,3E,/G,/ G,A,/G,/ | 
[V:2] z6 | 
[V:1] (3E,E,E,-E,4- | 
[V:2] z6 | 
[V:1] [M:3/8]E,3 |]  
[V:2] [M:3/8]z3 |]  



